X:1
T:Va pensiero (Nabucco)
T:Giuseppe Verdi
%%score [ 1 2 3 4 ]
L:1/8
Q:1/4=48
M:4/4
K:F#
V:1 treble nm="S"
V:2 treble nm="A"
V:3 treble-8 nm="T"
V:4 bass nm="B"
V:1
 z8 | z8 | z8 | z8 | z8 | z8 | z8 | z8 | z8 | z8 | z8 | z4 z2!p! A3/2 G/ | F2 C z/ c/ c2 A3/2 F/ | %13
w: |||||||||||Va, pen-|sie- ro, sul- l'a- li do-|
 (3(FEG) B2 z2 C3/2 C/ | C2 F3/2 A/ (A>G) A3/2 G/ | F2 E2 z2 A3/2 G/ | F2 C3/2 c/ c2 A3/2 F/ | %17
w: ra- * * te; Va, ti|po- sa sui cli- * vi, sui|col- li, O- ve\_o-|lez- za- no te- pi de\_e|
 (3(FEG) B2 z2 C3/2 C/ | (3(CFA) (3(cB) G F2 (3(EA) G | F4 z2 A3/2 A/ | G2 (3(^BA) G F2 (3(AG) F | %21
w: mol- * * li L'au- re|dol- * * ci _ del suo- lo _ na-|tal! Del Gior-|da- no _ le ri- ve _ sa-|
 (E>F) G2 z2 A3/2 ^B/ | !>!c2 ^B3/2 A/ (3(AG^^F) (3A G ^F | (E>D)!<(! (C4 !>!A3/2)!<)! G/ | %24
w: lu- * ta, Di Si-|on- ne le tor- * * ri at- ter-|ra- * te... O, mia|
 F2 C3/2 c/ !>!c2 A3/2 F/ | (3(FEG) B2 z2 C3/2 C/ | (3(CFA) (3(cB) G F2 (3(EA) G | F4 z2 c3/2 c/ | %28
w: pa- tria si bel- la\_e per|du- * * ta! O, mem-|bran- * * za _ sì ca- ra\e _ fa-|tal! Ar- pa|
!ff! !>![ce]2 !>![ce]3/2 !>![ce]/ !>![ce]2 (3(!>![ce]!>![^Bd]) !>![Ac] | %29
w: d'or dei fa- ti- di- * ci|
 (!>!^B2 (3!>!A!>!B!>!c) G2 (3z!pp! [EG] [EG] | [DF] z [DF] z/ [DF]/ [DF] z [DF] z/ [DF]/ | %31
w: va- * * * ti, Per- che|mu- ta dal sa- li- ce|
 !>![FA]2 [EG]2 z2 G3/2 G/ | %32
w: pen- di? Le me-|
!ff! !>![ce]2 !>![ce]3/2 !>![ce]/ (!>![ce]2 (3!>![ce]!>![^Bd]) !>![Ac] | %33
w: mo- rie nel pet- to _ rac-|
 (!>!^B2 (3!>!A!>!^B!>!c) G2 (3z!p! [EG] [EG] | [DF] z [DF] z/ [DF]/ [DF] z (3([DF][FA]) [EG] | %35
w: cen- * * * di, Ci fa-|vel- la del tem- po _ che|
 [CE]4 z2 C3/2 C/ | [EB]2 [EB]3/2 [EB]/ [F=A]2 [FA]3/2 [FA]/ | [EG]4 C z C3/2 C/ | %38
w: fu! O si-|mi- le di So- li- ma\_ai|fa- ti Trag- gi\_un|
 [EB]2 [EB]3/2 [EB]/ [F=A]2 [FA]3/2 [FA]/ | [EG]2 C4 !>!A3/2 G/ |!f! F2 C3/2 c/ c2 A3/2 F/ | %41
w: suo- no di cru- do la-|men- to, O t'i-|spi- ri\_il Si- gno- re con-|
 (3(FEG) B2 z2 C3/2 C/ | (3(CFA) (3(cB) G F2 (3(EA) G | F z A3/2 A/ A2 A3/2 A/ | %44
w: cen- * * to Che ne\_in-|fon- * * da\al _ pa- ti- re _ vir-|tu, Che ne\_in- fon- da\_al pa-|
 (d4- (3dcB) (3(AB) G | F z A3/2 A/ A2 A3/2 A/ | (d4- (3dcB) (3(AB) G | %47
w: ti- * * * re _ vir-|tu, Che ne\_in- fon- da\_al pa-|ti- * * * re _ vir-|
 F z!pp! [FA]3/2 [FA]/ [FA]2 [FA]3/2 [FA]/ | ([F-A]8 | [FA]2) z2 z4 | z8 |] %51
w: tu, al pa- ti- re vir-|tu!|_||
V:2
 z8 | z8 | z8 | z8 | z8 | z8 | z8 | z8 | z8 | z8 | z8 | z4 z2 A3/2 G/ | F2 C z/ c/ c2 A3/2 F/ | %13
w: |||||||||||Va, pen-|sie- ro, sul- l'a- li do-|
 (3(FEG) B2 z2 C3/2 C/ | C2 F3/2 A/ (A>G) A3/2 G/ | F2 E2 z2 A3/2 G/ | F2 C3/2 c/ c2 A3/2 F/ | %17
w: ra- * * te; Va, ti|po- sa sui cli- * vi, sui|col- li, O- ve\_o-|lez- za- no te- pi de\_e|
 (3(FEG) B2 z2 C3/2 C/ | (3(CFA) (3(cB) G F2 (3(EA) G | F4 z2 A3/2 A/ | G2 (3(^BA) G F2 (3(AG) F | %21
w: mol- * * li L'au- re|dol- * * ci _ del suo- lo _ na-|tal! Del Gior-|da- no _ le ri- ve _ sa-|
 (E>F) G2 z2 A3/2 ^B/ | !>!c2 ^B3/2 A/ (3(AG^^F) (3A G ^F | (E>D) (C4 !>!A3/2) G/ | %24
w: lu- * ta, Di Si-|on- ne le tor- * * ri at- ter-|ra- * te... O, mia|
 F2 C3/2 c/ !>!c2 A3/2 F/ | (3(FEG) B2 z2 C3/2 C/ | (3(CFA) (3(cB) G F2 (3(EA) G | F4 z2 c3/2 c/ | %28
w: pa- tria si bel- la\_e per|du- * * ta! O, mem-|bran- * * za _ sì ca- ra\e _ fa-|tal! Ar- pa|
 !>!G2 !>!G3/2 !>!G/ !>!G2 !>!G3/2 !>!G/ | (!>!G2 (3!>!F!>!G!>!A) E2 (3z C C | %30
w: d'or dei fa- ti- di ci|va- * * * ti, Per- che|
 ^B, z B, z/ B,/ B, z B, z/ B,/ | !>!C2 C2 z2 G3/2 G/ | !>!G2 !>!G3/2 !>!G/ !>!G2 !>!G3/2 !>!G/ | %33
w: mu- ta dal sa- li- ce|pen- di? Le me-|mo- rie nel- pet- to rac-|
 (!>!G2 (3!>!F!>!G!>!A) E2 (3z C C | ^B, z B, z/ B,/ B, z B, z/ B,/ | C4 z2 C3/2 C/ | %36
w: cen- * * * di, Ci fa-|vel- la del tem- po che|fu! O si-|
 C2 C3/2 C/ C2 C3/2 C/ | C4 C z C3/2 C/ | C2 C3/2 C/ C2 C3/2 C/ | C2 C4 !>!A3/2 G/ | %40
w: mi- le di So- li- ma\_ai|fa- ti Trag- gi\_un|suo- no di cru- do la-|men- to, O t'i-|
 F2 C3/2 c/ c2 A3/2 F/ | (3(FEG) B2 z2 C3/2 C/ | (3(CFA) (3(cB) G F2 (3(EA) G | %43
w: spi- ri\_il Si- gno- re con-|cen- * * to Che ne\_in-|fon- * * da\al _ pa- ti- re _ vir-|
 F z A3/2 A/ A2 A3/2 A/ | (d4- (3dcB) (3(AB) G | F z A3/2 A/ A2 A3/2 A/ | (d4- (3dcB) (3(AB) G | %47
w: tu, Che ne\_in- fon- da\_al pa-|ti- * * * re _ vir-|tu, Che ne\_in- fon- da\_al pa-|ti- * * * re _ vir-|
 F z C3/2 C/ C2 C3/2 C/ | (C8 | C2) z2 z4 | z8 |] %51
w: tu, al pa- ti- re vir-|tu!|_||
V:3
 z8 | z8 | z8 | z8 | z8 | z8 | z8 | z8 | z8 | z8 | z8 | z4 z2 A3/2 G/ | F2 C z/ c/ c2 A3/2 F/ | %13
w: |||||||||||Va, pen-|sie- ro, sul- l'a- li do-|
 (3(FEG) B2 z2 C3/2 C/ | C2 F3/2 A/ (A>G) A3/2 G/ | F2 E2 z2 A3/2 G/ | F2 C3/2 c/ c2 A3/2 F/ | %17
w: ra- * * te; Va, ti|po- sa sui cli- * vi, sui|col- li, O- ve\_o-|lez- za- no te- pi de\_e|
 (3(FEG) B2 z2 C3/2 C/ | (3(CFA) (3(cB) G F2 (3(EA) G | F4 z2 A3/2 A/ | G2 (3(^BA) G F2 (3(AG) F | %21
w: mol- * * li L'au- re|dol- * * ci _ del suo- lo _ na-|tal! Del Gior-|da- no _ le ri- ve _ sa-|
 (E>F) G2 z2 A3/2 ^B/ | !>!c2 ^B3/2 A/ (3(AG^^F) (3A G ^F | (E>D) (C4 !>!A3/2) G/ | %24
w: lu- * ta, Di Si-|on- ne le tor- * * ri at- ter-|ra- * te... O, mia|
 F2 C3/2 c/ !>!c2 A3/2 F/ | (3(FEG) B2 z2 C3/2 C/ | (3(CFA) (3(cB) G F2 (3(EA) G | F4 z2 c3/2 c/ | %28
w: pa- tria si bel- la\_e per|du- * * ta! O, mem-|bran- * * za _ sì ca- ra\e _ fa-|tal! Ar- pa|
 !>![ce]2 !>![ce]3/2 !>![ce]/ !>![ce]2 (3(!>![ce]!>![^Bd]) !>![Ac] | %29
w: d'or dei fa- ti- di- * ci|
 (!>![G^B]2 (3!>![FA]!>![GB]!>![Ac]) [EG]2 (3z [EG] [EG] | %30
w: va- * * * ti, Per- che|
 [DF] z [DF] z/ [DF]/ [DF] z [DF] z/ [DF]/ | !>![FA]2 [EG]2 z2 G3/2 G/ | %32
w: mu- ta dal sa- li- ce|pen- di? Le me-|
 !>![ce]2 !>![ce]3/2 !>![ce]/ (!>![ce]2 (3!>![ce]!>![^Bd]) !>![Ac] | %33
w: mo- rie nel pet- to _ rac-|
 (!>![G^B]2 (3!>![FA]!>![G^B]!>![Ac]) [EG]2 (3z [EG] [EG] | %34
w: cen- * * * di, Ci fa-|
 [DF] z [DF] z/ [DF]/ [DF] z (3([DF][FA]) [EG] | [CE]4 z2 C3/2 C/ | %36
w: vel- la del tem- po _ che|fu! O si-|
 [GB]2 [GB]3/2 [GB]/ [F=A]2 [FA]3/2 [FA]/ | [EG]4 C z C3/2 C/ | %38
w: mi- le di So- li- ma\_ai|fa- ti Trag- gi\_un|
 [GB]2 [GB]3/2 [GB]/ [F=A]2 [FA]3/2 [FA]/ | [EG]2 C4 !>!A3/2 G/ | F2 C3/2 c/ c2 A3/2 F/ | %41
w: suo- no di cru- do la-|men- to, O t'i-|spi- ri\_il Si- gno- re con-|
 (3(FEG) B2 z2 C3/2 C/ | (3(CFA) (3(cB) G F2 (3(EA) G | F z A3/2 A/ A2 A3/2 A/ | %44
w: cen- * * to Che ne\_in-|fon- * * da\al _ pa- ti- re _ vir-|tu, Che ne\_in- fon- da\_al pa-|
 (d4- (3dcB) (3(AB) G | F z A3/2 A/ A2 A3/2 A/ | (d4- (3dcB) (3(AB) G | %47
w: ti- * * * re _ vir-|tu, Che ne\_in- fon- da\_al pa-|ti- * * * re _ vir-|
 F z [Ac]3/2 [Ac]/ [Ac]2 [Ac]3/2 [Ac]/ | ([Ac]8 | [Ac]2) z2 z4 | z8 |] %51
w: tu, al pa- ti- re vir-|tu!|_||
V:4
 z8 | z8 | z8 | z8 | z8 | z8 | z8 | z8 | z8 | z8 | z8 | z4 z2 A,3/2 G,/ | %12
w: |||||||||||Va, pen-|
 F,2 C, z/ C/ C2 A,3/2 F,/ | (3(F,E,G,) B,2 z2 C,3/2 C,/ | C,2 F,3/2 A,/ (A,>G,) A,3/2 G,/ | %15
w: sie- ro, sul- l'a- li do-|ra- * * te; Va, ti|po- sa sui cli- * vi, sui|
 F,2 E,2 z2 A,3/2 G,/ | F,2 C,3/2 C/ C2 A,3/2 F,/ | (3(F,E,G,) B,2 z2 C,3/2 C,/ | %18
w: col- li, O- ve\_o-|lez- za- no te- pi de\_e|mol- * * li L'au- re|
 (3(C,F,A,) (3(CB,) G, F,2 (3(E,A,) G, | F,4 z2 A,3/2 A,/ | G,2 (3(^B,A,) G, F,2 (3(A,G,) F, | %21
w: dol- * * ci _ del suo- lo _ na-|tal! Del Gior-|da- no _ le ri- ve _ sa-|
 (E,>F,) G,2 z2 A,3/2 ^B,/ | !>!C2 ^B,3/2 A,/ (3(A,G,^^F,) (3A, G, ^F, | %23
w: lu- * ta, Di Si-|on- ne le tor- * * ri at- ter-|
 (E,>D,) (C,4 !>!A,3/2) G,/ | F,2 C,3/2 C/ !>!C2 A,3/2 F,/ | (3(F,E,G,) B,2 z2 C,3/2 C,/ | %26
w: ra- * te... O, mia|pa- tria si bel- la\_e per|du- * * ta! O, mem-|
 (3(C,F,A,) (3(CB,) G, F,2 (3(E,A,) G, | F,4 z2 C3/2 C/ | %28
w: bran- * * za _ sì ca- ra\e _ fa-|tal! Ar- pa|
 !>!C,2 !>!C,3/2 !>!C,/ !>!C,2 !>!C,3/2 !>!C,/ | !>!G,,4 C,2 (3z C, C, | %30
w: d'or dei fa- ti- di ci|va- ti, Per- che|
 G,, z G,, z/ G,,/ G,, z G,, z/ G,,/ | !>!C,2 C,2 z2 G,3/2 G,/ | %32
w: mu- ta dal sa- li- ce|pen- di? Le me-|
 !>!C,2 !>!C,3/2 !>!C,/ !>!C,2 !>!C,3/2 !>!C,/ | !>!G,,4 C,2 (3z C, C, | %34
w: mo- rie nel pet- to rac-|cen- di, Ci fa-|
 G,, z G,, z/ G,,/ G,, z G,, z/ G,,/ | C,4 z2 C,3/2 C,/ | C,2 C,3/2 C,/ C,2 C,3/2 C,/ | %37
w: vel- la del tem- po che|fu! O si-|mi- le di So- li- ma\_ai|
 C,4 C, z C,3/2 C,/ | C,2 C,3/2 C,/ C,2 C,3/2 C,/ | C,2 C,4 !>!A,3/2 G,/ | %40
w: fa- ti Trag- gi\_un|suo- no di cru- do la-|men- to, O t'i-|
 F,2 C,3/2 C/ C2 A,3/2 F,/ | (3(F,E,G,) B,2 z2 C,3/2 C,/ | (3(C,F,A,) (3(CB,) G, F,2 (3(E,A,) G, | %43
w: spi- ri\_il Si- gno- re con-|cen- * * to Che ne\_in-|fon- * * da\al _ pa- ti- re _ vir-|
 F, z A,3/2 A,/ A,2 A,3/2 A,/ | (D4- (3DCB,) (3(A,B,) G, | F, z A,3/2 A,/ A,2 A,3/2 A,/ | %46
w: tu, Che ne\_in- fon- da\_al pa-|ti- * * * re _ vir-|tu, Che ne\_in- fon- da\_al pa-|
 (D4- (3DCB,) (3(A,B,) G, | F, z F,3/2 F,/ F,2 F,3/2 F,/ | (F,8 | F,2) z2 z4 | z8 |] %51
w: ti- * * * re _ vir-|tu, al pa- ti- re vir-|tu!|_||

